material/.icons/material/snowflake-melt.svg

<svg xmlns="http://www.w3.org/2000/svg" viewBox="0 0 24 24"><path d="M8 17.85C8 19.04 7.11 20 6 20s-2-.96-2-2.15C4 16.42 6 14 6 14s2 2.42 2 3.85M16.46 12v-1.44l2-1.13 2.33.62.52-1.93-1.77-.47.46-1.77-1.93-.52-.62 2.33-2 1.13L13 7.38V5.12l1.71-1.71L13.29 2 12 3.29 10.71 2 9.29 3.41 11 5.12v2.26L8.5 8.82l-2-1.13-.58-2.33L4 5.88l.47 1.77-1.77.47.52 1.93 2.33-.62 2 1.13V12H2v1h20v-1h-5.54M9.5 12v-1.44L12 9.11l2.5 1.45V12h-5M20 17.85c0 1.19-.89 2.15-2 2.15s-2-.96-2-2.15c0-1.43 2-3.85 2-3.85s2 2.42 2 3.85m-6 3c0 1.19-.89 2.15-2 2.15s-2-.96-2-2.15c0-1.43 2-3.85 2-3.85s2 2.42 2 3.85z"/></svg>

<?xml version="1.0" encoding="UTF-8"?><!DOCTYPE svg PUBLIC "-//W3C//DTD SVG 1.1//EN" "http://www.w3.org/Graphics/SVG/1.1/DTD/svg11.dtd"><svg xmlns="http://www.w3.org/2000/svg" xmlns:xlink="http://www.w3.org/1999/xlink" version="1.1" id="mdi-snowflake-melt" width="24" height="24" viewBox="0 0 24 24"><path d="M8 17.85C8 19.04 7.11 20 6 20S4 19.04 4 17.85C4 16.42 6 14 6 14S8 16.42 8 17.85M16.46 12V10.56L18.46 9.43L20.79 10.05L21.31 8.12L19.54 7.65L20 5.88L18.07 5.36L17.45 7.69L15.45 8.82L13 7.38V5.12L14.71 3.41L13.29 2L12 3.29L10.71 2L9.29 3.41L11 5.12V7.38L8.5 8.82L6.5 7.69L5.92 5.36L4 5.88L4.47 7.65L2.7 8.12L3.22 10.05L5.55 9.43L7.55 10.56V12H2V13H22V12H16.46M9.5 12V10.56L12 9.11L14.5 10.56V12H9.5M20 17.85C20 19.04 19.11 20 18 20S16 19.04 16 17.85C16 16.42 18 14 18 14S20 16.42 20 17.85M14 20.85C14 22.04 13.11 23 12 23S10 22.04 10 20.85C10 19.42 12 17 12 17S14 19.42 14 20.85Z" /></svg>
